X:61
T:Joy to the World
%%stretchlast false
M:2/4
L:1/4
K:C clef=C1
"^I"[C,CEc] "^i7"[C,CGB]3/4 "^IV²"[C,CFA]/4 | "^I"[C,CEG]3/2 "^ii¹"[F,,A,DF]/ | "^I²"[G,,G,CE] "^V"[G,,G,B,D]/ "^V7"[G,,F,B,D]/ | "^I"[C,E,C]3/2 "^I¹"[E,CG]/ | "^IV"[F,CFA]3/2 [F,CFA]/ | "^V"[G,DB]3/2 [G,DB]/ | "^I"[C,G,Ec]3/2 [C,G,Ec]/ | [C,G,Ec]/ [C,G,GB]/ "^IV²"[C,CFA]/ "^I"[C,CEG]/ | [C,CEG]3/4 "^ii7³"[C,CDF]/4 "^I"[C,CE]/ [C,G,Ec]/ | [C,G,Ec]/ [C,G,GB]/ "^IV²"[C,CFA]/ "^I"[C,CEG]/ | [C,CEG]3/4 "^ii7³"[C,CDF]/4 "^I"[C,CE]/ [C,CE]/ | [C,CE]/ [C,CE]/ [C,CE]/ [C,G,CE]/4 "^ii"[C,G,DF]/4 | "^iii¹"[G,EG]/ [G,EG]/ [G,EG]/ "^v7"[G,,G,DF]/4 "^I²"[G,,G,CE]/4 | "^V"[G,,G,B,D]/ [G,,G,B,D]/ [G,,G,B,D]/ [G,,G,B,D]/4 "^I²"[G,,G,CE]/4 | "^ii"[C,G,DF]3/2 "^I"[C,G,CE]/4 "^vii°7³"[C,F,B,D]/4 | "^I"[C,E,C]/ [C,G,Ec] "^IV"[F,,CFA]/ | "^I²"[G,,CEG]3/4 "^ii"[G,,CDF]/4 "^I²"[G,,CE]/ "^ii"[G,,A,DF]/ | "^I"[C,G,CE] "^V"[C,G,B,D]/ [C,F,B,D]/ | "^I¹"[E,C]2 |]
